frontend/src/resources/hopr_icon.svg

<svg viewBox="0 0 256 256" xmlns="http://www.w3.org/2000/svg" fill-rule="evenodd" clip-rule="evenodd"
  stroke-linejoin="round" stroke-miterlimit="2">
  <circle cx="96" cy="106" r="79" fill="#fdffa0" transform="translate(-27.544 -43.747) scale(1.62025)" />
  <path
    d="M46.4 24.6c-.7-.1-1.3-.1-2-.1-4.9 0-9.7 2-14 5.8-2 1.8-3.9 4-5.6 6.4-.3-9.3-.8-19.2-1.8-29.3H10.5c2.7 28.4 2.4 53.2 1.9 75v.1h12.5c.4-21.8 5.8-35.8 13.9-43 2.2-1.9 4.3-2.8 6.2-2.6 9.9 1.1 8.3 31.9 7.6 45.6h12.5c.5-10.1 1.1-22.4-.3-33-2-15.5-8.3-23.8-18.4-24.9z"
    fill="url(#prefix___Linear1)" fill-rule="nonzero" transform="translate(46.149 31.39) scale(2.14926)" />
  <defs>
    <linearGradient id="prefix___Linear1" x1="0" y1="0" x2="1" y2="0" gradientUnits="userSpaceOnUse"
      gradientTransform="rotate(-90 61.53 23.38) scale(62.8837)">
      <stop offset="0" stop-color="#0000b4" />
      <stop offset=".01" stop-color="#0000b4" />
      <stop offset="1" stop-color="#000050" />
    </linearGradient>
  </defs>
</svg>

<?xml version="1.0" encoding="UTF-8" standalone="no"?>
<!DOCTYPE svg PUBLIC "-//W3C//DTD SVG 1.1//EN" "http://www.w3.org/Graphics/SVG/1.1/DTD/svg11.dtd">
<svg width="100%" height="100%" viewBox="0 0 256 256" version="1.1" xmlns="http://www.w3.org/2000/svg" xmlnsXlink="http://www.w3.org/1999/xlink" xml:space="preserve" xmlnsSerif="http://www.serif.com/" style="fill-rule:evenodd;clip-rule:evenodd;stroke-linejoin:round;stroke-miterlimit:2;">
    <g transform="matrix(1.62025,0,0,1.62025,-27.5443,-43.7468)">
        <circle cx="96" cy="106" r="79" style="fill:rgb(253,255,160);"/>
    </g>
    <g transform="matrix(2.14926,0,0,2.14926,46.1488,31.3908)">
        <path d="M46.4,24.6C45.7,24.5 45.1,24.5 44.4,24.5C39.5,24.5 34.7,26.5 30.4,30.3C28.4,32.1 26.5,34.3 24.8,36.7C24.5,27.4 24,17.5 23,7.4L10.5,7.4C13.2,35.8 12.9,60.6 12.4,82.4L12.4,82.5L24.9,82.5C25.3,60.7 30.7,46.7 38.8,39.5C41,37.6 43.1,36.7 45,36.9C54.9,38 53.3,68.8 52.6,82.5L65.1,82.5C65.6,72.4 66.2,60.1 64.8,49.5C62.8,34 56.5,25.7 46.4,24.6Z" style="fill:url(#_Linear1);fill-rule:nonzero;"/>
    </g>
    <defs>
        <linearGradient id="_Linear1" x1="0" y1="0" x2="1" y2="0" gradientUnits="userSpaceOnUse" gradientTransform="matrix(3.85052e-15,-62.8837,62.8837,3.85052e-15,38.1501,84.9116)"><stop offset="0" style="stop-color:rgb(0,0,180);stop-opacity:1"/><stop offset="0.01" style="stop-color:rgb(0,0,180);stop-opacity:1"/><stop offset="1" style="stop-color:rgb(0,0,80);stop-opacity:1"/></linearGradient>
    </defs>
</svg>
